X:700
T: "Adelina"
N: Z1381
O: Europa, Mitteleuropa, Deutschland, Niederrhein
R: Erzaehlung, Romanze, Tod
M: 2/4
L: 1/16
K: E
EF | =G2F2G2A2 | =GFE2z2
F2 | =G2F2G2A2 | B4z2
B2 | B2A2B2c2 | =dcB2z2
B2 | A=GF2G2A2 | B4A2
A=G | E2F2=G2F2 | E4z2

@@@ Tune index: 10458
